ui/StatusQ/src/assets/img/icons/arbitrator.svg

<svg fill="none" height="24" viewBox="0 0 24 24" width="24" xmlns="http://www.w3.org/2000/svg"><g fill="#000"><path clip-rule="evenodd" d="m17 8c0 2.7614-2.2386 5-5 5-2.76142 0-5-2.2386-5-5 0-2.76142 2.23858-5 5-5 2.7614 0 5 2.23858 5 5zm-1.5 0c0 1.933-1.567 3.5-3.5 3.5s-3.5-1.567-3.5-3.5 1.567-3.5 3.5-3.5 3.5 1.567 3.5 3.5z" fill-rule="evenodd"/><path d="m12.1099 17.5007c.4189.0053.7898-.2992.8246-.7168.034-.4077-.2656-.7701-.6746-.7806-.0864-.0022-.1731-.0033-.2601-.0033-3.04048 0-5.76406 1.357-7.59813 3.4984-.23986.28-.20848.6949.05225.9556.3238.3239.85982.2772 1.16232-.0666 1.55771-1.7703 3.84021-2.8874 6.38356-2.8874.0368 0 .0734.0002.1101.0007z"/><path d="m21 16v-1c0-.5523-.4477-1-1-1h-3c-.5523 0-1 .4477-1 1v1c0 .5523.4477 1 1 1h.25c.2761 0 .5.2239.5.5v3.5c0 .4142.3358.75.75.75s.75-.3358.75-.75v-3.5c0-.2761.2239-.5.5-.5h.25c.5523 0 1-.4477 1-1z"/></g></svg>

<svg width="24" height="24" viewBox="0 0 24 24" fill="none" xmlns="http://www.w3.org/2000/svg">
<path fill-rule="evenodd" clip-rule="evenodd" d="M17 8C17 10.7614 14.7614 13 12 13C9.23858 13 7 10.7614 7 8C7 5.23858 9.23858 3 12 3C14.7614 3 17 5.23858 17 8ZM15.5 8C15.5 9.933 13.933 11.5 12 11.5C10.067 11.5 8.5 9.933 8.5 8C8.5 6.067 10.067 4.5 12 4.5C13.933 4.5 15.5 6.067 15.5 8Z" fill="black"/>
<path d="M12.1099 17.5007C12.5288 17.506 12.8997 17.2015 12.9345 16.7839C12.9685 16.3762 12.6689 16.0138 12.2599 16.0033C12.1735 16.0011 12.0868 16 11.9998 16C8.95932 16 6.23574 17.357 4.40167 19.4984C4.16181 19.7784 4.19319 20.1933 4.45392 20.454C4.77772 20.7779 5.31374 20.7312 5.61624 20.3874C7.17395 18.6171 9.45645 17.5 11.9998 17.5C12.0366 17.5 12.0732 17.5002 12.1099 17.5007Z" fill="black"/>
<path d="M21 16V15C21 14.4477 20.5523 14 20 14H17C16.4477 14 16 14.4477 16 15V16C16 16.5523 16.4477 17 17 17H17.25C17.5261 17 17.75 17.2239 17.75 17.5V21C17.75 21.4142 18.0858 21.75 18.5 21.75C18.9142 21.75 19.25 21.4142 19.25 21V17.5C19.25 17.2239 19.4739 17 19.75 17H20C20.5523 17 21 16.5523 21 16Z" fill="black"/>
</svg>
